X: 51
T: LITTLE BROTHER OF MY HEART
B: O'Neill's 51
M: 3/4
L: 1/8
Z: 1999 by John Chambers <jc@trillian.mit.edu>
N: "Plaintively"
N: "Collected by F.O'Neill"
K:Dm
DE \
| F2 G2 FG | A>f gf ed | c2 d>c AG | F2 G>F ED |
| D4    c2 | f2  A2 A2 | c3   d e2 | f4 ((3gfe) |
| d4 ((3cAG) | A4 ((3cde) | f2 e2 d2 | c2 d2 e2 |
| f4 ((3gfe) | d4 ((3cAG) | A4 (DE) | F2 G2 FG |
| A2 a>g f>d | c2 d>c A>G | F2 G>F ED | D4 D2 \
| D4 ||


